packages/kaspersky-hexa-ui-icons/src/iconsSVGs/16/StatusDangerOutline1.svg

<svg width="16" height="16" viewBox="0 0 16 16" fill="none" xmlns="http://www.w3.org/2000/svg">
<path d="M7.99995 4.44331C8.41417 4.44331 8.74995 4.7791 8.74995 5.19331V8.10334C8.74995 8.51756 8.41417 8.85334 7.99995 8.85334C7.58574 8.85334 7.24995 8.51756 7.24995 8.10334V5.19331C7.24995 4.7791 7.58574 4.44331 7.99995 4.44331Z" fill="black"/>
<path d="M7.99985 11.5681C8.4693 11.5681 8.84985 11.1876 8.84985 10.7181C8.84985 10.2487 8.4693 9.86812 7.99985 9.86812C7.53041 9.86812 7.14985 10.2487 7.14985 10.7181C7.14985 11.1876 7.53041 11.5681 7.99985 11.5681Z" fill="black"/>
<path fill-rule="evenodd" clip-rule="evenodd" d="M4.39995 1.69995H11.6C13.0911 1.69995 14.3 2.90878 14.3 4.39995V11.6C14.3 13.0911 13.0911 14.3 11.6 14.3H4.39995C2.90878 14.3 1.69995 13.0911 1.69995 11.6V4.39995C1.69995 2.90878 2.90878 1.69995 4.39995 1.69995ZM4.39995 2.99995C3.62675 2.99995 2.99995 3.62675 2.99995 4.39995V11.6C2.99995 12.3731 3.62675 13 4.39995 13H11.6C12.3731 13 13 12.3731 13 11.6V4.39995C13 3.62675 12.3731 2.99995 11.6 2.99995H4.39995Z" fill="black"/>
</svg>

<svg xmlns="http://www.w3.org/2000/svg" width="16" height="16" fill="none" viewBox="0 0 16 16"><path fill="#000" d="M8 4.443a.75.75 0 0 1 .75.75v2.91a.75.75 0 1 1-1.5 0v-2.91a.75.75 0 0 1 .75-.75m0 7.125a.85.85 0 1 0 0-1.7.85.85 0 0 0 0 1.7"/><path fill="#000" fill-rule="evenodd" d="M4.4 1.7h7.2c1.4911 0 2.7 1.2088 2.7 2.7v7.2c0 1.4911-1.2089 2.7-2.7 2.7H4.4c-1.4912 0-2.7-1.2089-2.7-2.7V4.4c0-1.4912 1.2088-2.7 2.7-2.7m0 1.3C3.6267 3 3 3.6267 3 4.4v7.2c0 .7731.6267 1.4 1.4 1.4h7.2c.7731 0 1.4-.6269 1.4-1.4V4.4c0-.7733-.6269-1.4-1.4-1.4z" clip-rule="evenodd"/></svg>
